X: 1
T: Glen Affric Waltz
C: Lorna A. McDougall (2007)
R: waltz
Z: 2007 John Chambers <jc:trillian.mit.edu>
S: printed MS from scotchsnap.com
M: 3/4
L: 1/8
K: C
[| e4    g2 | e4    c2 | Ac-c4    | G6    | d4    e2 | g4    e2 | d4    c2 | de-e4 |
 | e4    g2 | e4    c2 | Ac-c4    | G4 f2 | eg-g4    | d4    e2 | c6       | c6    |]
